X:224
T:B224-  I went from England into France
Q:1/4=120
L:1/4
M:3/4
K:Gmixolydian
B/2 B/2B/2|B3/2A/2 G/2F/2|E3/2A/2 A/2A/2|A3/2G/2^F/2E/2|\
D/2G/2 G/2E/2 ^F/2G/2|A3/2A/2 B/2c/2|d3/2c/2 B/2A/2|\
A3/2B/2 G/2G/2|GDE/2F/2|G/2D/2 (G/4A/4B/2) A3/4G/4|\
(G3|G3/2)|]

